src/pages/elements/images/this-is-too-comfortable-mobile.svg

<?xml version="1.0" encoding="UTF-8"?>
<svg width="288px" height="144px" viewBox="0 0 288 144" version="1.1" xmlns="http://www.w3.org/2000/svg" xmlns:xlink="http://www.w3.org/1999/xlink">
    <!-- Generator: Sketch 51.2 (57519) - http://www.bohemiancoding.com/sketch -->
    <title>Too comfortable_Mobile</title>
    <desc>Created with Sketch.</desc>
    <defs></defs>
    <g id="Page-1" stroke="none" stroke-width="1" fill="none" fill-rule="evenodd">
        <g id="Typography_Mobile_320px-Copy-2" transform="translate(-16.000000, -471.000000)">
            <g id="Too-comfortable_Mobile" transform="translate(16.000000, 471.000000)">
                <rect id="Rectangle-16-Copy-169" fill="#FFFFFF" x="0" y="0" width="288" height="144"></rect>
                <path d="M37.2,66.024 L31.872,66.024 L31.872,81 L29.856,81 L29.856,66.024 L24.528,66.024 L24.528,64.248 L37.2,64.248 L37.2,66.024 Z M44.221333,81.288 C40.909333,81.288 38.629333,78.744 38.629333,74.808 C38.629333,70.872 40.909333,68.328 44.221333,68.328 C47.533333,68.328 49.813333,70.872 49.813333,74.808 C49.813333,78.744 47.533333,81.288 44.221333,81.288 Z M44.221333,79.584 C46.285333,79.584 47.749333,78.312 47.749333,75.696 L47.749333,73.92 C47.749333,71.304 46.285333,70.032 44.221333,70.032 C42.157333,70.032 40.693333,71.304 40.693333,73.92 L40.693333,75.696 C40.693333,78.312 42.157333,79.584 44.221333,79.584 Z M58.994666,81.288 C55.682666,81.288 53.402666,78.744 53.402666,74.808 C53.402666,70.872 55.682666,68.328 58.994666,68.328 C62.306666,68.328 64.586666,70.872 64.586666,74.808 C64.586666,78.744 62.306666,81.288 58.994666,81.288 Z M58.994666,79.584 C61.058666,79.584 62.522666,78.312 62.522666,75.696 L62.522666,73.92 C62.522666,71.304 61.058666,70.032 58.994666,70.032 C56.930666,70.032 55.466666,71.304 55.466666,73.92 L55.466666,75.696 C55.466666,78.312 56.930666,79.584 58.994666,79.584 Z M80.693332,81.288 C77.213332,81.288 75.173332,78.768 75.173332,74.808 C75.173332,70.848 77.213332,68.328 80.693332,68.328 C83.141332,68.328 84.605332,69.528 85.325332,71.232 L83.717332,72.048 C83.261332,70.776 82.205332,70.032 80.693332,70.032 C78.413332,70.032 77.237332,71.592 77.237332,73.752 L77.237332,75.864 C77.237332,78.024 78.413332,79.584 80.693332,79.584 C82.253332,79.584 83.381332,78.84 84.053332,77.424 L85.445332,78.36 C84.653332,80.136 83.045332,81.288 80.693332,81.288 Z M94.026665,81.288 C90.714665,81.288 88.434665,78.744 88.434665,74.808 C88.434665,70.872 90.714665,68.328 94.026665,68.328 C97.338665,68.328 99.618665,70.872 99.618665,74.808 C99.618665,78.744 97.338665,81.288 94.026665,81.288 Z M94.026665,79.584 C96.090665,79.584 97.554665,78.312 97.554665,75.696 L97.554665,73.92 C97.554665,71.304 96.090665,70.032 94.026665,70.032 C91.962665,70.032 90.498665,71.304 90.498665,73.92 L90.498665,75.696 C90.498665,78.312 91.962665,79.584 94.026665,79.584 Z M106.039998,81 L104.119998,81 L104.119998,68.616 L106.039998,68.616 L106.039998,70.632 L106.135998,70.632 C106.687998,69.36 107.551998,68.328 109.471998,68.328 C111.103998,68.328 112.591998,69.072 113.263998,70.848 L113.311998,70.848 C113.767998,69.504 114.967998,68.328 117.079998,68.328 C119.599998,68.328 121.111998,70.056 121.111998,73.056 L121.111998,81 L119.191998,81 L119.191998,73.392 C119.191998,71.208 118.351998,70.056 116.479998,70.056 C114.967998,70.056 113.575998,70.824 113.575998,72.408 L113.575998,81 L111.655998,81 L111.655998,73.392 C111.655998,71.184 110.815998,70.056 108.991998,70.056 C107.479998,70.056 106.039998,70.824 106.039998,72.408 L106.039998,81 Z M127.077331,81 L127.077331,70.296 L125.061331,70.296 L125.061331,68.616 L127.077331,68.616 L127.077331,66.12 C127.077331,64.416 127.965331,63.24 129.789331,63.24 L131.661331,63.24 L131.661331,64.92 L128.997331,64.92 L128.997331,68.616 L131.661331,68.616 L131.661331,70.296 L128.997331,70.296 L128.997331,81 L127.077331,81 Z M140.098664,81.288 C136.786664,81.288 134.506664,78.744 134.506664,74.808 C134.506664,70.872 136.786664,68.328 140.098664,68.328 C143.410664,68.328 145.690664,70.872 145.690664,74.808 C145.690664,78.744 143.410664,81.288 140.098664,81.288 Z M140.098664,79.584 C142.162664,79.584 143.626664,78.312 143.626664,75.696 L143.626664,73.92 C143.626664,71.304 142.162664,70.032 140.098664,70.032 C138.034664,70.032 136.570664,71.304 136.570664,73.92 L136.570664,75.696 C136.570664,78.312 138.034664,79.584 140.098664,79.584 Z M152.111997,81 L150.191997,81 L150.191997,68.616 L152.111997,68.616 L152.111997,70.896 L152.231997,70.896 C152.663997,69.72 153.791997,68.616 155.807997,68.616 L156.551997,68.616 L156.551997,70.536 L155.423997,70.536 C153.359997,70.536 152.111997,71.424 152.111997,72.6 L152.111997,81 Z M165.56533,81 L163.16533,81 C161.84533,81 161.12533,80.16 161.12533,78.96 L161.12533,70.296 L159.08533,70.296 L159.08533,68.616 L160.23733,68.616 C161.05333,68.616 161.31733,68.328 161.31733,67.488 L161.31733,65.184 L163.04533,65.184 L163.04533,68.616 L165.75733,68.616 L165.75733,70.296 L163.04533,70.296 L163.04533,79.32 L165.56533,79.32 L165.56533,81 Z M180.266663,81 L179.186663,81 C177.770663,81 177.194663,80.136 177.050663,78.984 L176.930663,78.984 C176.402663,80.496 175.082663,81.288 173.354663,81.288 C170.738663,81.288 169.202663,79.848 169.202663,77.544 C169.202663,75.216 170.882663,73.92 174.482663,73.92 L176.930663,73.92 L176.930663,72.696 C176.930663,70.944 175.970663,69.984 174.002663,69.984 C172.514663,69.984 171.530663,70.704 170.858663,71.832 L169.706663,70.752 C170.378663,69.432 171.866663,68.328 174.098663,68.328 C177.074663,68.328 178.850663,69.888 178.850663,72.504 L178.850663,79.32 L180.266663,79.32 L180.266663,81 Z M173.666663,79.656 C175.562663,79.656 176.930663,78.672 176.930663,77.4 L176.930663,75.36 L174.386663,75.36 C172.202663,75.36 171.218663,76.032 171.218663,77.232 L171.218663,77.736 C171.218663,78.96 172.178663,79.656 173.666663,79.656 Z M184.335996,81 L184.335996,63.24 L186.255996,63.24 L186.255996,70.632 L186.351996,70.632 C186.999996,69.072 188.271996,68.328 189.975996,68.328 C193.071996,68.328 195.015996,70.848 195.015996,74.808 C195.015996,78.768 193.071996,81.288 189.975996,81.288 C188.271996,81.288 187.095996,80.52 186.351996,78.984 L186.255996,78.984 L186.255996,81 L184.335996,81 Z M189.447996,79.56 C191.607996,79.56 192.951996,78.072 192.951996,75.864 L192.951996,73.752 C192.951996,71.544 191.607996,70.056 189.447996,70.056 C187.695996,70.056 186.255996,71.064 186.255996,72.432 L186.255996,77.04 C186.255996,78.648 187.695996,79.56 189.447996,79.56 Z M203.333329,81 L201.629329,81 C200.309329,81 199.589329,80.16 199.589329,79.008 L199.589329,63.24 L201.509329,63.24 L201.509329,79.32 L203.333329,79.32 L203.333329,81 Z M212.106662,81.288 C208.746662,81.288 206.538662,78.744 206.538662,74.808 C206.538662,70.872 208.746662,68.328 212.106662,68.328 C215.418662,68.328 217.458662,70.872 217.458662,74.376 L217.458662,75.288 L208.554662,75.288 L208.554662,75.864 C208.554662,78 209.922662,79.608 212.226662,79.608 C213.786662,79.608 214.986662,78.84 215.634662,77.472 L217.002662,78.456 C216.210662,80.136 214.434662,81.288 212.106662,81.288 Z M212.106662,69.936 C210.018662,69.936 208.554662,71.52 208.554662,73.68 L208.554662,73.848 L215.394662,73.848 L215.394662,73.584 C215.394662,71.4 214.074662,69.936 212.106662,69.936 Z M222.703995,81.288 C221.695995,81.288 221.239995,80.712 221.239995,79.896 L221.239995,79.584 C221.239995,78.768 221.695995,78.192 222.703995,78.192 C223.711995,78.192 224.167995,78.768 224.167995,79.584 L224.167995,79.896 C224.167995,80.712 223.711995,81.288 222.703995,81.288 Z" id="Too-comfortable." fill="#3D3D3D"></path>
            </g>
        </g>
    </g>
</svg>

<svg xmlns="http://www.w3.org/2000/svg" viewBox="0 0 288 144"><g fill="none" fill-rule="evenodd"><path fill="#FFF" d="M0 0h288v144H0z"/><path d="M37.2 66.024h-5.328V81h-2.016V66.024h-5.328v-1.776H37.2v1.776zm7.021 15.264c-3.312 0-5.592-2.544-5.592-6.48 0-3.936 2.28-6.48 5.592-6.48s5.592 2.544 5.592 6.48c0 3.936-2.28 6.48-5.592 6.48zm0-1.704c2.064 0 3.528-1.272 3.528-3.888V73.92c0-2.616-1.464-3.888-3.528-3.888s-3.528 1.272-3.528 3.888v1.776c0 2.616 1.464 3.888 3.528 3.888zm14.774 1.704c-3.312 0-5.592-2.544-5.592-6.48 0-3.936 2.28-6.48 5.592-6.48s5.592 2.544 5.592 6.48c0 3.936-2.28 6.48-5.592 6.48zm0-1.704c2.064 0 3.528-1.272 3.528-3.888V73.92c0-2.616-1.464-3.888-3.528-3.888s-3.528 1.272-3.528 3.888v1.776c0 2.616 1.464 3.888 3.528 3.888zm21.698 1.704c-3.48 0-5.52-2.52-5.52-6.48 0-3.96 2.04-6.48 5.52-6.48 2.448 0 3.912 1.2 4.632 2.904l-1.608.816c-.456-1.272-1.512-2.016-3.024-2.016-2.28 0-3.456 1.56-3.456 3.72v2.112c0 2.16 1.176 3.72 3.456 3.72 1.56 0 2.688-.744 3.36-2.16l1.392.936c-.792 1.776-2.4 2.928-4.752 2.928zm13.334 0c-3.312 0-5.592-2.544-5.592-6.48 0-3.936 2.28-6.48 5.592-6.48s5.592 2.544 5.592 6.48c0 3.936-2.28 6.48-5.592 6.48zm0-1.704c2.064 0 3.528-1.272 3.528-3.888V73.92c0-2.616-1.464-3.888-3.528-3.888s-3.528 1.272-3.528 3.888v1.776c0 2.616 1.464 3.888 3.528 3.888zM106.04 81h-1.92V68.616h1.92v2.016h.096c.552-1.272 1.416-2.304 3.336-2.304 1.632 0 3.12.744 3.792 2.52h.048c.456-1.344 1.656-2.52 3.768-2.52 2.52 0 4.032 1.728 4.032 4.728V81h-1.92v-7.608c0-2.184-.84-3.336-2.712-3.336-1.512 0-2.904.768-2.904 2.352V81h-1.92v-7.608c0-2.208-.84-3.336-2.664-3.336-1.512 0-2.952.768-2.952 2.352V81zm21.037 0V70.296h-2.016v-1.68h2.016V66.12c0-1.704.888-2.88 2.712-2.88h1.872v1.68h-2.664v3.696h2.664v1.68h-2.664V81h-1.92zm13.022.288c-3.312 0-5.592-2.544-5.592-6.48 0-3.936 2.28-6.48 5.592-6.48s5.592 2.544 5.592 6.48c0 3.936-2.28 6.48-5.592 6.48zm0-1.704c2.064 0 3.528-1.272 3.528-3.888V73.92c0-2.616-1.464-3.888-3.528-3.888s-3.528 1.272-3.528 3.888v1.776c0 2.616 1.464 3.888 3.528 3.888zM152.112 81h-1.92V68.616h1.92v2.28h.12c.432-1.176 1.56-2.28 3.576-2.28h.744v1.92h-1.128c-2.064 0-3.312.888-3.312 2.064V81zm13.453 0h-2.4c-1.32 0-2.04-.84-2.04-2.04v-8.664h-2.04v-1.68h1.152c.816 0 1.08-.288 1.08-1.128v-2.304h1.728v3.432h2.712v1.68h-2.712v9.024h2.52V81zm14.702 0h-1.08c-1.416 0-1.992-.864-2.136-2.016h-.12c-.528 1.512-1.848 2.304-3.576 2.304-2.616 0-4.152-1.44-4.152-3.744 0-2.328 1.68-3.624 5.28-3.624h2.448v-1.224c0-1.752-.96-2.712-2.928-2.712-1.488 0-2.472.72-3.144 1.848l-1.152-1.08c.672-1.32 2.16-2.424 4.392-2.424 2.976 0 4.752 1.56 4.752 4.176v6.816h1.416V81zm-6.6-1.344c1.896 0 3.264-.984 3.264-2.256v-2.04h-2.544c-2.184 0-3.168.672-3.168 1.872v.504c0 1.224.96 1.92 2.448 1.92zM184.336 81V63.24h1.92v7.392h.096c.648-1.56 1.92-2.304 3.624-2.304 3.096 0 5.04 2.52 5.04 6.48 0 3.96-1.944 6.48-5.04 6.48-1.704 0-2.88-.768-3.624-2.304h-.096V81h-1.92zm5.112-1.44c2.16 0 3.504-1.488 3.504-3.696v-2.112c0-2.208-1.344-3.696-3.504-3.696-1.752 0-3.192 1.008-3.192 2.376v4.608c0 1.608 1.44 2.52 3.192 2.52zM203.333 81h-1.704c-1.32 0-2.04-.84-2.04-1.992V63.24h1.92v16.08h1.824V81zm8.774.288c-3.36 0-5.568-2.544-5.568-6.48 0-3.936 2.208-6.48 5.568-6.48 3.312 0 5.352 2.544 5.352 6.048v.912h-8.904v.576c0 2.136 1.368 3.744 3.672 3.744 1.56 0 2.76-.768 3.408-2.136l1.368.984c-.792 1.68-2.568 2.832-4.896 2.832zm0-11.352c-2.088 0-3.552 1.584-3.552 3.744v.168h6.84v-.264c0-2.184-1.32-3.648-3.288-3.648zm10.597 11.352c-1.008 0-1.464-.576-1.464-1.392v-.312c0-.816.456-1.392 1.464-1.392s1.464.576 1.464 1.392v.312c0 .816-.456 1.392-1.464 1.392z" fill="#3D3D3D"/></g></svg>
